assets/icons/qvision/swap_calls.svg

<svg width="24" height="24" viewBox="0 0 24 24" fill="none" xmlns="http://www.w3.org/2000/svg">
<g clip-path="url(#clip0_147_2029)">
<path d="M18 4L14 8H17V15C17 16.1 16.1 17 15 17C13.9 17 13 16.1 13 15V8C13 5.79 11.21 4 9 4C6.79 4 5 5.79 5 8V15H2L6 19L10 15H7V8C7 6.9 7.9 6 9 6C10.1 6 11 6.9 11 8V15C11 17.21 12.79 19 15 19C17.21 19 19 17.21 19 15V8H22L18 4Z" fill="#323232"/>
</g>
<defs>
<clipPath id="clip0_147_2029">
<rect width="24" height="24" fill="white"/>
</clipPath>
</defs>
</svg>

<svg xmlns="http://www.w3.org/2000/svg" height="24" viewBox="0 0 24 24" width="24"><path d="M0 0h24v24H0z" fill="none"/><path d="M18 4l-4 4h3v7c0 1.1-.9 2-2 2s-2-.9-2-2V8c0-2.21-1.79-4-4-4S5 5.79 5 8v7H2l4 4 4-4H7V8c0-1.1.9-2 2-2s2 .9 2 2v7c0 2.21 1.79 4 4 4s4-1.79 4-4V8h3l-4-4z"/></svg>
